X: 11
T: MISS McCLOUD'S REEL
R: reel
Z: 2006 John Chambers <jc:trillian.mit.edu>
B: "Rinnci na h-\'Eireann" Elizabeth Burchenal, ed. G.Schirmer (1925) p.36
M: 2/4
L: 1/16
Q: 1/4=112
K: D
|: "D"D2d2 "G"(BABd) | "D"F2F2 (FGFE) | "D"D2d2 "G"(BABd) | "A" E2E2  (EGFE) |
   "D"D2d2 "G"(BABd) | "D"F2FG (FGA2) | "G"B2(Bc)  (BABc) | "D"(dBAF) "A"E4 :|
|: "D"D2FD     ADFD  | "D"F2FE (FGFE) | "D"D2FD     ADFD  | "A" E2ED  (EGFE) |
   "D"D2FD     ADFD  | "D"F2F2 (FGA2) | "G"B2(Bc)   BABc  | "D"(dBAF) "A"E4 :|

%%sep 2 1 500

